public/feat1.svg

<svg width="112" height="95" viewBox="0 0 112 95" fill="none" xmlns="http://www.w3.org/2000/svg">
<path d="M49.5022 34.7972C58.8519 34.7972 66.4313 27.2179 66.4313 17.8682C66.4313 8.51859 58.8519 0.939209 49.5022 0.939209C40.1526 0.939209 32.5732 8.51859 32.5732 17.8682C32.5732 27.2179 40.1526 34.7972 49.5022 34.7972Z" fill="#6F99A3"/>
<path d="M42.2504 75.139C47.2672 75.139 51.3342 71.2569 51.3342 66.4681C51.3342 61.6792 47.2672 57.7971 42.2504 57.7971C37.2335 57.7971 33.1665 61.6792 33.1665 66.4681C33.1665 71.2569 37.2335 75.139 42.2504 75.139Z" fill="#44C4E8"/>
<g clip-path="url(#clip0_191_17)">
<path d="M73.7441 34.1762C72.9319 34.9833 71.8333 35.4362 70.6883 35.4362C69.5432 35.4362 68.4447 34.9833 67.6324 34.1762L64.0437 30.5875C63.2359 29.7753 62.7824 28.6764 62.7824 27.5309C62.7824 26.3855 63.2359 25.2865 64.0437 24.4744L72.1666 16.3475C72.1826 16.332 72.1946 16.3128 72.2015 16.2916C72.2083 16.2703 72.2098 16.2478 72.2058 16.2258C72.2018 16.2039 72.1924 16.1833 72.1785 16.1659C72.1646 16.1484 72.1466 16.1347 72.1261 16.1259C66.8828 13.8784 60.0849 15.0238 55.7682 19.3095C51.6379 23.4087 51.4028 29.5745 52.9156 34.9555C53.1305 35.7204 53.13 36.5298 52.9141 37.2944C52.6981 38.0589 52.2752 38.749 51.6919 39.2885L29.1898 59.8388C28.526 60.4274 27.9895 61.1456 27.6134 61.9492C27.2373 62.7529 27.0296 63.6249 27.0029 64.5118C26.9763 65.3986 27.1314 66.2816 27.4586 67.1063C27.7858 67.931 28.2782 68.6801 28.9056 69.3075C29.533 69.9349 30.2821 70.4274 31.1068 70.7546C31.9316 71.0818 32.8145 71.2368 33.7014 71.2102C34.5882 71.1836 35.4603 70.9758 36.2639 70.5998C37.0675 70.2237 37.7857 69.6872 38.3744 69.0233L59.1556 46.4672C59.6882 45.8938 60.3668 45.476 61.1187 45.2588C61.8706 45.0415 62.6674 45.033 63.4237 45.2341C68.7643 46.6644 74.8422 46.3956 78.9185 42.372C83.3068 38.0499 84.2536 30.4105 82.1264 26.0385C82.1168 26.0193 82.1028 26.0028 82.0856 25.9901C82.0683 25.9775 82.0484 25.9691 82.0273 25.9657C82.0062 25.9622 81.9846 25.9639 81.9642 25.9704C81.9439 25.977 81.9254 25.9882 81.9102 26.0033L73.7441 34.1762Z" stroke="black" stroke-width="4.32212" stroke-miterlimit="10" stroke-linecap="round"/>
</g>
<defs>
<clipPath id="clip0_191_17">
<rect width="61" height="64" fill="white" transform="translate(24.5156 11)"/>
</clipPath>
</defs>
</svg>

<svg xmlns="http://www.w3.org/2000/svg" width="112" height="95" fill="none"><path fill="#6F99A3" d="M49.502 34.797c9.35 0 16.93-7.58 16.93-16.929 0-9.35-7.58-16.929-16.93-16.929S32.573 8.52 32.573 17.87c0 9.349 7.58 16.928 16.93 16.928Z"/><path fill="#44C4E8" d="M42.25 75.139c5.017 0 9.084-3.882 9.084-8.67 0-4.79-4.067-8.672-9.084-8.672-5.017 0-9.084 3.882-9.084 8.671s4.068 8.671 9.084 8.671Z"/><g clip-path="url(#a)"><path stroke="#000" stroke-linecap="round" stroke-miterlimit="10" stroke-width="4.322" d="M73.744 34.176a4.335 4.335 0 0 1-6.112 0l-3.588-3.589a4.334 4.334 0 0 1 0-6.113l8.123-8.127a.137.137 0 0 0 .039-.121.135.135 0 0 0-.08-.1c-5.243-2.248-12.041-1.102-16.358 3.183-4.13 4.1-4.365 10.265-2.852 15.646a4.314 4.314 0 0 1-1.224 4.334L29.19 59.838a6.507 6.507 0 1 0 9.184 9.184l20.782-22.556a4.313 4.313 0 0 1 4.268-1.233c5.34 1.43 11.418 1.162 15.494-2.862 4.389-4.322 5.336-11.962 3.208-16.334a.135.135 0 0 0-.216-.035l-8.166 8.173Z"/></g><defs><clipPath id="a"><path fill="#fff" d="M24.516 11h61v64h-61z"/></clipPath></defs></svg>
